modules/hawcons-stroke/icons/icon-20-basketball-hoop.svg

<?xml version="1.0" encoding="UTF-8" standalone="no"?>
<svg width="32px" height="32px" viewBox="0 0 32 32" version="1.1" xmlns="http://www.w3.org/2000/svg" xmlns:xlink="http://www.w3.org/1999/xlink" xmlns:sketch="http://www.bohemiancoding.com/sketch/ns">
    <!-- Generator: Sketch 3.0.3 (7891) - http://www.bohemiancoding.com/sketch -->
    <title>icon 20 basketball hoop</title>
    <desc>Created with Sketch.</desc>
    <defs></defs>
    <g id="Page-1" stroke="none" stroke-width="1" fill="none" fill-rule="evenodd" sketch:type="MSPage">
        <g id="icon-20-basketball-hoop" sketch:type="MSArtboardGroup" fill="#929292">
            <path d="M12.7737134,20.3412164 L12.3825277,19.157509 L12.3825277,19.157509 C12.8471632,19.3958064 13.4103875,19.5934791 14.0431495,19.7373221 L14.0431495,19.7373221 L14.2357391,20.7965652 C13.6520824,20.6830682 13.1519918,20.5270358 12.7737134,20.3412164 L12.7737134,20.3412164 Z M13.1511467,21.4833097 L13.5289842,22.6266262 L13.5289842,22.6266262 C13.8520188,22.7213531 14.2161251,22.8008868 14.6112503,22.8618765 L14.4209484,21.8152162 C13.9636654,21.7302861 13.5371593,21.6181784 13.1511467,21.4833097 L13.1511467,21.4833097 Z M16,20.9908452 L16,19.9898084 C15.6833351,19.9768374 15.3744096,19.9516664 15.0755159,19.9153373 L15.0755159,19.9153373 L15.2622813,20.9425472 C15.5006935,20.9652333 15.7471908,20.9815297 16,20.9908452 L16,20.9908452 Z M16,21.9898084 L16,22.9908452 C15.8754938,22.9862574 15.7525185,22.9799764 15.631286,22.9720728 L15.446211,21.9541607 C15.6277778,21.9701749 15.8125327,21.9821295 16,21.9898084 L16,21.9898084 Z M17,21.9898084 L17,22.9908452 L17,22.9908452 C17.1245062,22.9862574 17.2474815,22.9799764 17.368714,22.9720728 L17.553789,21.9541607 C17.3722222,21.9701749 17.1874673,21.9821295 17,21.9898084 L17,21.9898084 Z M17,20.9908452 L17,19.9898084 C17.3166649,19.9768374 17.6255904,19.9516664 17.9244841,19.9153373 L17.7377187,20.9425472 C17.4993065,20.9652333 17.2528092,20.9815297 17,20.9908452 L17,20.9908452 Z M19.8449498,21.4846723 L19.4659381,22.628113 L19.4659381,22.628113 C19.1441674,22.7221855 18.781806,22.8012062 18.3887497,22.8618765 L18.5790516,21.8152162 C19.0347937,21.7305722 19.459966,21.6189336 19.8449498,21.4846723 L19.8449498,21.4846723 Z M20.2235158,20.3425759 L20.6160903,19.1582175 C20.1517202,19.3961982 19.5889853,19.5936217 18.9568505,19.7373221 L18.7642609,20.7965652 C19.3464937,20.6833451 19.8455676,20.5277968 20.2235158,20.3425759 L20.2235158,20.3425759 Z M14.9615041,24.7882727 C14.3981493,24.6121006 14.0284766,24.3414071 14.0015746,24.0358276 L13.9946899,24.0358276 L13.8835558,23.6995415 C14.1730109,23.7708319 14.4781221,23.8306615 14.7959439,23.8776915 L14.9615041,24.7882727 L14.9615041,24.7882727 L14.9615041,24.7882727 Z M15.9963083,24.9796955 C15.9975385,24.9797961 15.9987691,24.9798964 16,24.9799964 L16,24.9799964 L16,23.9898084 C15.9379261,23.9872658 15.8761495,23.9842544 15.8146876,23.980782 L15.9963083,24.9796956 L15.9963083,24.9796955 L15.9963083,24.9796955 Z M17,23.9898084 L17,24.9799964 L17,24.9799964 C17.0012309,24.9798964 17.0024615,24.9797961 17.0036917,24.9796955 L17.0036917,24.9796956 L17.1853124,23.980782 C17.1238505,23.9842544 17.0620739,23.9872658 17,23.9898084 L17,23.9898084 L17,23.9898084 Z M19.1102948,23.7010538 L18.9993286,24.0358276 L18.9984254,24.0358276 L18.9984254,24.0358276 C18.9715234,24.3414071 18.6018507,24.6121006 18.0384959,24.7882727 L18.0384959,24.7882727 L18.2040561,23.8776915 C18.5196281,23.8309945 18.8226687,23.7716783 19.1102948,23.7010538 L19.1102948,23.7010538 L19.1102948,23.7010538 Z M11.1441077,18.0709918 L11.7343269,20 L7,20 L7,7 L26,7 L26,20 L21.2701153,20 L21.2701153,20 L21.8580396,18.0667977 C21.8693375,18.0446432 21.8799875,18.0223759 21.8899801,18 L24,18 L24,9 L9,9 L9,18 L11.1100199,18 C11.1206432,18.0237883 11.1320096,18.047454 11.1441077,18.0709918 L11.1441077,18.0709918 Z M11.1100199,17 L10,17 L10,10 L23,10 L23,17 L21.8899801,17 C21.3803827,15.8588798 19.1608537,15 16.5,15 C13.8391463,15 11.6196173,15.8588798 11.1100199,17 L11.1100199,17 L11.1100199,17 Z M13.0147324,24.1847374 L12.0402972,21 L6,21 L6,6 L27,6 L27,21 L20.9659958,21 L20.9659958,21 L19.9842529,24.2281494 L19.9774766,24.2281494 C19.7793218,25.225283 18.2979877,26 16.5,26 C14.6760024,26 13.1778861,25.2027065 13.0147324,24.1847374 L13.0147324,24.1847374 L13.0147324,24.1847374 Z M16.5,19 C18.9852814,19 21,18.3284271 21,17.5 C21,16.6715729 18.9852814,16 16.5,16 C14.0147186,16 12,16.6715729 12,17.5 C12,18.3284271 14.0147186,19 16.5,19 L16.5,19 Z" id="basketball-hoop" sketch:type="MSShapeGroup"></path>
        </g>
    </g>
</svg>

<svg width="32" height="32" xmlns="http://www.w3.org/2000/svg"><path d="M12.774 20.341l-.391-1.183a7.138 7.138 0 0 0 1.66.58l.193 1.059c-.584-.114-1.084-.27-1.462-.456zm.377 1.142l.378 1.144c.323.094.687.174 1.082.235l-.19-1.047a8.659 8.659 0 0 1-1.27-.332zM16 20.991V19.99a11.607 11.607 0 0 1-.924-.075l.186 1.028c.239.022.485.039.738.048zm0 .999v1c-.125-.004-.247-.01-.369-.018l-.185-1.018c.182.016.367.028.554.036zm1 0v1c.125-.004.247-.01.369-.018l.185-1.018c-.182.016-.367.028-.554.036zm0-1v-1c.317-.013.626-.038.924-.075l-.186 1.028c-.239.022-.485.039-.738.048zm2.845.495l-.38 1.143a8.473 8.473 0 0 1-1.076.234l.19-1.047c.456-.084.881-.196 1.266-.33zm.379-1.142l.392-1.185a7.14 7.14 0 0 1-1.66.58l-.192 1.059c.582-.114 1.082-.27 1.46-.454zm-5.262 4.445c-.564-.176-.934-.447-.96-.752h-.007l-.111-.336c.289.07.594.13.912.178l.166.91zm1.034.192H16v-.99a11.971 11.971 0 0 1-.185-.01l.181 1zM17 23.99v.99h.004l.181-1-.185.01zm2.11-.289l-.11.335h-.002c-.026.305-.396.576-.96.752l.166-.91c.316-.047.619-.106.906-.177zm-7.966-5.63l.59 1.929H7V7h19v13h-4.73l.588-1.933.032-.067H24V9H9v9h2.11c.01.024.022.047.034.071zM11.11 17H10v-7h13v7h-1.11c-.51-1.141-2.73-2-5.39-2-2.66 0-4.88.859-5.39 2zm1.905 7.185L12.04 21H6V6h21v15h-6.034l-.982 3.228h-.007C19.78 25.225 18.298 26 16.5 26c-1.824 0-3.322-.797-3.485-1.815zM16.5 19c2.485 0 4.5-.672 4.5-1.5S18.985 16 16.5 16s-4.5.672-4.5 1.5 2.015 1.5 4.5 1.5z" fill="#929292" fill-rule="evenodd"/></svg>
